X:1
%
T:Marsail Lochinalie
M:3/4
L:1/8
R:Air
Q:"Slow"
N: To be begun slow and increase in quickness to the last
N:part but one, as the tune represents a Battle. 
B:Oswald   Caledonian Pocket Companion, Book 11 (1760, p. 125)
Z:AK/Fiddler s Companion
K:Ador
A3B d2|e4 A2|e3f ed|e4 B2|d4 B2|d3 B G2|
e3f (ed)|B4 G2|A3B d2|e4 f2|g3 b ag|a4 (ga)|
b3a ge|d3e G2|e3 g ed|TB4 !fermata!A2||e4 (dB)|e4 (dB)|
e3 (dB)|d4 (BG)|e4 (dB)|g4 (ed)|G4 (ed)|B4 A2|
a4 (ge)|a4 (ge)|g4 (eg)|d4 (BG)|a4 (ge)|g4 (ed)|
G4 (ed)|B4 A2||e3 e/e/ e2|d3 B/B/ B2|e3 e/e/ e2|d3 G/G/ G2|
e3 e/e/ e2|g3 e/e/ e2|d3 G/G/ G2|B3 A/A/ A2|a3 e/e/ e2|a3 e/e/ e2|
g3 d/d/ d2|g3 d/d/ d2|a3 e/e/ e2|g3 d/d/ d2|e3 G/G/ G2|B3 A/A/ A2||
e3 e/e/ e2|^c3 A/A/ A2|e3 e/e/ e2|d3 B/B/ B2|e3 e/e/ e2|^c3 A/A/ A2|
d3 B/B/ B2|c3 A/A/ A2|a3 a/a/ a2|a3 ^c/c/ c2|a3 a/a/ a2|a3 B/B/ B2|
a3 e/e/ e2|a3 ^c/c/ c2|a3 B/B/ B2|a3 A/A/ A2||e/e/e/e/ e/e/e/e/ .^c2|
e/e/e/e/ e/e/e/e/ .B2|e/e/e/e/ e/e/e/e/ .^c2|f/f/f/f/ e/e/e/e/ .A2|
a/a/a/a/ a/a/a/a/ .^c2|a/a/a/a/ a/a/a/a/ .B2|a/a/a/a/ a/a/a/a/ ^c/c/c/c/|
f/f/f/f/ e/e/e/e/ A2||A(3^c/d/e/ A(3c/d/e/ A(3f/^g/a/|A(3^c/d/e/ A(3^c/d/e/ B(3f/^g/a/|
A(3^c/d/e/ A(3^c/d/e/ A(3f/^g/a/|f/f/f/f/ e/e/e/e/ A2|e(3f/^g/a/ e(3f/^g/a/ ^c(3f/^g/a/|
e(3f/^g/a/ e(3f/^g/a/ B(3f/^g/a/|e(3f/^g/a/ e(3f/^g/a/ ^c(3f/^g/a/|f/f/f/f/ e/e/e/e/ A2||
A/A/A/A/ ^c/c/c/c/ a/a/a/a/|A/A/A/A/ ^c/c/c/c/ B/B/B/B/|A/A/A/A/ ^c/c/c/c/ a/a/a/a/|
f/f/f/f/ e/e/e/e/ A2|e/a/a/a/ a/a/a/a/ ^c/a/a/a/|e/a/a/a/ a/a/a/a/ Ba/a/a/|
c/a/a/a/ A/a/a/a/ ^c/a/a/a/|f/f/f/f/ e/e/e/e/ A2||"Slow"A4 (Bd)|
e4 (dB)|e4 (dB)|d4 (BG)|A4 (Bd)|e4 (dB)|
g4 (ed)|B4 AA|a4 (ge)|a4 (ge)|g4 (ed)|
B4 (AG)|a4 (ge)|g4 (ed)|G4 (ed)|TB4 A2||

